X: 21062
T: The AERIAL QUADRILLES. NO. 2.--l'\'Ete.
%R: march
B: W. Hamilton "Universal Tune-Book" Vol. 2 Glasgow 1846 p.106 #2
S: http://s3-eu-west-1.amazonaws.com/itma.dl.printmaterial/book_pdfs/hamiltonvol2web.pdf
Z: 2016 John Chambers <jc:trillian.mit.edu>
N: Deleted rest at end of 1st strain, to fix the rhythm.
M: 2/4
L: 1/16
K: Bb
% - - - - - - - - - - - - - - - - - - - - - - - - -
[|!f!\
F2BA B2c2 | d2^c2 d4 | F2BA B2d2 | f2=e2 f4 |\
a2gf g2f2 | f2ed e2d2 | d2cB F2A2 | B2z2 b2 |]\
F2 !p!|\
d2e2d2c2 | B2d2f4 | g2f2c2f2 | d6 F2 |
d2e2d2c2 | B2d2f4 | g2f2e2c2 | B6 B2 |\
c2c2d2=e2 | f2g2a2b2 | Ta2g2g2a2 | g2f2 c2AB |\
c2c2d2=e2 | f2g2a2d'2 | c'2b2d2=e2 | "^D.C."f6 |]
% - - - - - - - - - - - - - - - - - - - - - - - - -

%%sep 1 1 500
%%sep 1 1 500

